X: 21561
T: Benney side
%R: air, reel
B: James Oswald "The Caledonian Pocket Companion" v.2 p.156 #1
Z: 2018 John Chambers <jc:trillian.mit.edu>
M: C
L: 1/16
K: Gm
B3A |\
G4 (B2d2) g3ab2g2 | (fd3)Tc3B {B}c4B3c |\
d6c2 (B2cd) c2B2 | {B2}A8 z4 B3A |\
G4 (Bd3) g2(ab) Ta2g2 |
f2(ed) Tc2B2 d'6c'2 |\
b3c'b2g2 f3gf2e2 | d12 :: (dcBA) |\
G4 (Bcd2) F4 (edcB) | G4 Bcd2 g2(ab) a2g2 |
f2(ed) c2B2 b2(ag) fdTcB | {B2}c8 z4 B2A2 |\
G4 B2d2 (g3a/b/) Ta2g2 | f2(ed) Tc2B2 b6g2 |\
f3gf2d2 c2(de) (dcBA) | G12 :|


